X:149
T:The Man from Bunclody (Tom Dunnes Hornpipe)
R:hornpipe
C:2011 LE McCullough 
M:4/4
L:1/8
K:D
N:Composed for Tom Dunnes 2011 Birthday
de|: fAdf edB^A | (3Bcd A^G ~A3A | BDGB AFAd | (3gfe fd e2de |
fAdf edB^A | (3Bcd A^G ~A3A | ~B3 d Adfd |1 gfec d2de :|2 gfec d2 c2 ||
~B3A BAGB | A~D3 A~D3 | BAGB ~A3f | gAfA edBA |
~B3A BAGB | A~D3 ADFA | G~B3 FAdf |1 gfec d2 c2 :|2 gfec d2 de ||
<end>
<start>
